X: 15
M: C|
L: 1/8
K: D
a>g |\
f>ad>f A>dF>A | D>FA>d f2e>f |\
g>be>g c>eA>F | G>AB>G E2a>g |
f>ad>f A>dF>A | D>FA>d f2e>f |\
g>bg>e c>AB>c | d2f2 d2 :|
|: D2 |\
|: a>g |\
(3fgf (3efe (3ded (3cdc | (3BcB (3ABA G2b>a |\
(3gag (3fgf (3efe (3ded | (3cdc (3BcB A2a>g |
(3fgf (3efe (3ded (3cdc | (3BcB (3ABA (3GAG (3FGF |\
E>ge>d c>AB>c | [d2F2][f2A2] [d2F2] H:|

